flutter/assets/jade.svg

<svg width="24.999" height="25" version="1.1" viewBox="0 0 6.6143 6.6146" xml:space="preserve" xmlns="http://www.w3.org/2000/svg"><g transform="translate(-89.804 -128.65)"><g transform="matrix(.26458 0 0 .26458 89.804 128.65)"><path d="m0 11.798 11.798-11.798v7.8652l-3.9326 3.9326z" fill="#fff"/><path d="m13.201 25 11.798-11.798h-7.8651l-3.9326 3.9326z" fill="#00b093"/><path d="m13.201 0 11.798 11.798h-7.8651l-3.9326-3.9326z" fill="#a9dbd3"/><path d="m0 13.202 11.798 11.798v-7.8652l-3.9326-3.9326z" fill="#06886f"/></g></g></svg>

<svg width="25" height="25" viewBox="0 0 25 25" fill="none" xmlns="http://www.w3.org/2000/svg">
<path d="M0 11.7979L11.7978 9.76325e-05L11.7978 7.86527L7.86519 11.7979L0 11.7979Z" fill="white"/>
<path d="M13.2012 25L24.9989 13.2022L17.1338 13.2022L13.2012 17.1348L13.2012 25Z" fill="#00B093"/>
<path d="M13.2012 0L24.9989 11.7978L17.1338 11.7978L13.2012 7.86517L13.2012 0Z" fill="#A9DBD3"/>
<path d="M0 13.2021L11.7978 24.9999L11.7978 17.1347L7.86519 13.2021L0 13.2021Z" fill="#06886F"/>
</svg>
